app/images/participant-modal/3.svg

<svg width="103" height="129" viewBox="0 0 103 129" fill="none" xmlns="http://www.w3.org/2000/svg">
<g opacity="0.3" filter="url(#filter0_f)">
<path d="M41.2617 56.082H50.5781C57.9609 56.082 61.6523 52.4688 61.6523 45.2422C61.6523 42.4297 60.7734 40.1445 59.0156 38.3867C57.2578 36.5898 54.7773 35.6914 51.5742 35.6914C48.957 35.6914 46.6719 36.4531 44.7188 37.9766C42.8047 39.5 41.8477 41.3945 41.8477 43.6602H22.1016C22.1016 39.168 23.3516 35.1641 25.8516 31.6484C28.3516 28.1328 31.8086 25.3984 36.2227 23.4453C40.6758 21.4531 45.5586 20.457 50.8711 20.457C60.3633 20.457 67.8242 22.625 73.2539 26.9609C78.6836 31.2969 81.3984 37.2539 81.3984 44.832C81.3984 48.5039 80.2656 51.9805 78 55.2617C75.7734 58.5039 72.5117 61.1406 68.2148 63.1719C72.7461 64.8125 76.3008 67.3125 78.8789 70.6719C81.457 73.9922 82.7461 78.1133 82.7461 83.0352C82.7461 90.6523 79.8164 96.7461 73.957 101.316C68.0977 105.887 60.4023 108.172 50.8711 108.172C45.2852 108.172 40.0898 107.117 35.2852 105.008C30.5195 102.859 26.9062 99.9102 24.4453 96.1602C21.9844 92.3711 20.7539 88.0742 20.7539 83.2695H40.6172C40.6172 85.8867 41.6719 88.1523 43.7812 90.0664C45.8906 91.9805 48.4883 92.9375 51.5742 92.9375C55.0508 92.9375 57.8242 91.9805 59.8945 90.0664C61.9648 88.1133 63 85.6328 63 82.625C63 78.3281 61.9258 75.2812 59.7773 73.4844C57.6289 71.6875 54.6602 70.7891 50.8711 70.7891H41.2617V56.082Z" fill="#5160E0"/>
</g>
<defs>
<filter id="filter0_f" x="0.753906" y="0.457031" width="101.992" height="127.715" filterUnits="userSpaceOnUse" color-interpolation-filters="sRGB">
<feFlood flood-opacity="0" result="BackgroundImageFix"/>
<feBlend mode="normal" in="SourceGraphic" in2="BackgroundImageFix" result="shape"/>
<feGaussianBlur stdDeviation="10" result="effect1_foregroundBlur"/>
</filter>
</defs>
</svg>

<svg width="103" height="129" fill="none" xmlns="http://www.w3.org/2000/svg"><g opacity=".3" filter="url(#filter0_f)"><path d="M41.262 56.082h9.316c7.383 0 11.074-3.613 11.074-10.84 0-2.812-.879-5.097-2.636-6.855-1.758-1.797-4.239-2.696-7.442-2.696-2.617 0-4.902.762-6.855 2.286-1.914 1.523-2.871 3.418-2.871 5.683H22.102c0-4.492 1.25-8.496 3.75-12.012 2.5-3.515 5.957-6.25 10.37-8.203 4.454-1.992 9.337-2.988 14.65-2.988 9.491 0 16.952 2.168 22.382 6.504 5.43 4.336 8.144 10.293 8.144 17.871 0 3.672-1.132 7.148-3.398 10.43-2.227 3.242-5.488 5.879-9.785 7.91 4.531 1.64 8.086 4.14 10.664 7.5 2.578 3.32 3.867 7.441 3.867 12.363 0 7.617-2.93 13.711-8.789 18.281-5.86 4.571-13.555 6.856-23.086 6.856-5.586 0-10.781-1.055-15.586-3.164-4.765-2.149-8.379-5.098-10.84-8.848-2.46-3.789-3.691-8.086-3.691-12.89h19.863c0 2.617 1.055 4.882 3.164 6.796 2.11 1.915 4.707 2.871 7.793 2.871 3.477 0 6.25-.956 8.32-2.87C61.965 88.112 63 85.632 63 82.624c0-4.297-1.074-7.344-3.223-9.14-2.148-1.797-5.117-2.696-8.906-2.696h-9.61V56.082z" fill="#5160E0"/></g><defs><filter id="filter0_f" x=".754" y=".457" width="101.992" height="127.715" filterUnits="userSpaceOnUse" color-interpolation-filters="sRGB"><feFlood flood-opacity="0" result="BackgroundImageFix"/><feBlend in="SourceGraphic" in2="BackgroundImageFix" result="shape"/><feGaussianBlur stdDeviation="10" result="effect1_foregroundBlur"/></filter></defs></svg>
